X:296
T:Pretty Peg
Z: id:dc-reel-275
M:C
L:1/8
K:D Major
A|defd AFDF|defd egfe|defd AFDF|GEFD CEE:|!
A|FDAD BDAD|FDAD CEE2|FDAD BDAD|GEFD CDD2|!
FDdD cDBD|ADFD CEE2|FAdf ecdB|AFGE D3|]!

